X:1
T:Quant' honestate mai
T:Tiburtio Massaino
T:Quant' honestate mai
C:Tiburtio Massaino
%%score [ 1 2 3 4 ]
L:1/8
Q:1/4=108
M:4/2
K:F
V:1 alto1 nm="Soprano" snm="S"
V:2 alto nm="Alto" snm="A"
V:3 tenor nm="Tenor" snm="T"
V:4 bass nm="Bass" snm="B"
V:1
 z16 |[K:A][K:treble] E8 A8- | A4 G4 G8 | A8 B4 A2 e2 | c3 d e2 B2 e6 A2 | z4 z2 F4 E2 D4 | %6
w: |Quant' ho-|* ne- sta-|te ma- i In-|vol- ta in mor- tal ve- lo,|Sce- se in ter-|
 C2 c2 d4 c4 z2 e2 | A3 A B2 c2 d2 B2 z2 A2- | A2 G2 F4 E2 B2 c3 d | e2 c2 z4 e6 d2 | c4 B4 c4 z4 | %11
w: ra dal cie- lo, In-|vol- ta in mor- tal ve- lo, Sce-|* se in ter- ra dal cie- *|* lo, Scorg' in|voi so- la,|
 z16 | z8 z4 e4- | e2 d4 c2 B4 c4 | z2 B2 c6 B2 A4 | A4 G4 F4 G4 | E8 A8- | A4 G4 G8 | %18
w: |Scorg'|_ in voi so- la,|e o- gni su- pre-|mo ho- no- re,|Et quan-|* to bel-|
 A8 B4 A2 e2 | c3 d e2 B2 e6 A2 | z4 z2 F4 E4 D2 | C3 D E4 C2 c4 B2- | B2 A2 G4 F8 | %23
w: lo A- mo- re, Mo-|stro del re- gno su- o,|nei va- ghi|ra- * * i, nei va-|* ghi ra- i,|
 z8 z2 E3 E D2 | D2 E2 F4 F4 z4 | z4 A4 G2 E2 F4 | G2 G2 A4 G4 A3 B | c8 B8 | z2 B4 B4 B4 c2- | %29
w: Scor- go de|glioc- chi vo- stri,|Ov- un- qu'io mi-|ri il lor vi- vo splen-|do- re,|Quel- la s'op- po-|
 c2 A2 A2 B2 c2 ^d2 e4- | e2 ^dc d3 c/d/ e4 B4 | z16 | A4 c2 c2 e4 B2 e2 | d2 c4 B2 c8 | c8 z4 A4 | %35
w: * ne a tut- ti i van de- si-|* * * * * * * ri,||Que- sto m'in- fiam- ma d'a-|mo- ro- so ar- do-|re, Al|
 F4 =G4 F4 E2 A2- | A2 G2 A4 z4 B4 | B4 E4 F3 G A4- | A2 B2 c4 B4 c4- | c2 B2 A6 GF G4 | %40
w: fin vin- ce il mi- glio-|* * re, Et|vuol che si vi ri|_ ve- ri- sca e ho- no|_ _ _ _ _ _|
[M:4/4][Q:1/4=216]"^note nere" A4 z4 | z4 c4 | A4 B4 | E8 | z4 e4 | e4 ^d4 | e8- | e4 z4 | z4 E4 | %49
w: ri,|Che'n|du- bio|son,|Che'n|du- bio|son,|_|Che'n|
 F4 G4 | A8 | G4 F4- | F4 E4 | F8 | G4 A4- | A4 G4 | c4 B4 | A4 A4 | E4 F4 | F4 B4- | B2 A2 A4- | %61
w: du- bio|son,|s'io v'a-|* mo o|s'io|v'a- do-|* ri,|Che'n du-|bio son,|s'io v'a-|mo o s'io|_ v'a- do-|
 A2 GF G4 |[M:4/2][Q:1/4=108]"^note bianche" A4 c4 A4 B4 | E4 z2 e2 e4 ^d4 | e16 | z8 E4 F4 | %66
w: |ri, Che'n du- bio|son, Che'n du- bio|son,|Che'n du-|
 G4 A8 G4 | F8 E4 F4- | F4 G4 A8 | G4 c8 B4 | A4 A4 E4 F4- | F4 B8 A4 | G4 A6 GF G4 | A16 |] %74
w: bio son, s'io|v'a- mo o s'io|_ v'a- do-|ri, Che'n du-|bio son, s'io v'a-|* mo o s'io|v'a- do- * * *|ri.|
V:2
 z16 |[K:A][K:treble] A,8 E8 | E4 E8 E4 | F8 E8 | E2 A4 G2 A2 B2 c4 | B2 E2 A4 G3 A B4 | c4 B4 z8 | %7
w: |Quant' ho-|ne- sta- te|ma- i|In- vol- ta in mor- tal ve-|lo, In- vol- ta in mor- tal|ve- lo,|
 z8 D6 C2 | B,4 A,2 A2 B4 A4 | z2 A3 G F2 E4 F4 | z16 | A6 G2 F4 E4 | F4 z4 A4 G3 A | %13
w: Sce- se in|ter- ra dal cie- lo,|Scorg' in voi so- la,||Scorg' in voi so-|la, Scorg' in _|
 B4 G2 A3 G G4 F2 | G2 G2 A4 E4 F4 | D3 C B,8 B,4 | z4 A,4 E8 | E4 E8 E4 | F8 E8 | %19
w: _ voi so- * * *|la, e o- gni su- pre-|mo ho- no- re,|Et quan-|to bel- lo A-|mo- re,|
 E2 A4 G2 A2 B2 c4 | B2 E2 A4 G4 B2 B2 | c2 A2 z4 z2 E2 E4 | D2 C4 C2 z4 z2 F2- | %23
w: Mo- stro del re- gno su-|o, Mo- stro del re- gno|su- o, nei va-|ghi ra- i, Scor-|
 FF E2 D2 C2 E3 D C2 A,2 | z8 A4 E2 E2 | G4 F2 F2 G2 A3 A B2 | c4 c4 z4 C4 | F4 E2 F3 E E4 ^D2 | %28
w: * go de glioc- chi vo- * * stri,|Ov- un- qu'io|mi- ri il lor vi- vo splen-|do- re, vi-|vo splen- do- * * *|
 E4 G8 G4 | A2 F4 F2 A2 B2 c2 A2 | B4 B4 z2 E2 G2 G2 | A4 E4 F3 G A2 B2 | c4 A2 A4 G4 B2- | %33
w: re, Quel- la|s'op- po- ne a tut- ti i van de-|si- ri, Que- sto m'in-|fiam- ma d'a- mo- ro- so ar-|do- re, d'a- mo- ro-|
 B2 A4 G4 F4 ^E2 | F8 z2 A2 F4- | F4 E4 A2 B2 c4 | B4 z2 A2 G8 | G4 A6 A2 E2 E2 | %38
w: * so ar- do- * *|re, Al fin|_ vin- ce il mi- glio-|re, Et vuol|che si vi ri ve-|
 F4 G2 A2 F3 G A2 A2 | F4 E4 E8 |[M:4/4] E8 | z4 E4 | D4 D4 | C2 B,2 C2 D2 | E4 E4 | A4 F4 | G8 | %47
w: ri- sca, che si vi ri ve-|ri- sca e ho- no|ri,|Che'n|du- bio|son, _ _ _|_ Che'n|du- bio|son,|
 E4 F4 | G4 A4 | z4 E4 | C4 F4 | E4 C4 | C4 B,4 | C4 ^D4 | E6 ^DC | ^D4 E4 | A4 G4 | E4 F4 | %58
w: Che'n du-|bio son,|Che'n|du- bio|son, s'io|v'a- mo o|s'io v'a-|do- * *|* ri,|Che'n du-|bio son,|
 G4 A4- | A4 G4 | F4 E4 | E8 |[M:4/2] E4 E4 D4 D4 | CB,CD E2 E2 A4 F4 | G8 z4 E4 | F4 G4 A4 z4 | %66
w: s'io v'a-|* mo o|s'io v'a-|do-|ri, Che'n du- bio|son, _ _ _ _ Che'n du- bio|son, Che'n|du- bio son,|
 z2 E2 C4 F4 E4 | z2 C2 C4 B,4 C4- | C2 D2 E6 ^DC D4 | E8 A4 G4 | E4 F4 G4 A4- | A4 G4 F4 E4 | %72
w: Che'n du- bio son,|s'io v'a- mo o s'io|_ v'a- do- * * *|ri, Che'n du-|bio son, s'io v'a-|* mo o s'io v'a-|
 E16 | E16 |] %74
w: do-|ri.|
V:3
 z16 |[K:A][K:treble-8] c16 | B4 B4 c8 | c4 d8 c4 | z8 z4 z2 e2- | e2 c4 d2 e2 e2 f4 | %6
w: |Quant'|ho- ne- sta-|te ma- i|In-|* vol- ta in mor- tal ve-|
 e4 z4 z2 A4 G2 | F4 E2 e2 f3 g a2 e2 | z4 A6 G2 F4 | E2 e2 a4 g4 z4 | e6 d2 c4 B4 | c8 z2 d4 c2 | %12
w: lo, Sce- se in|ter- ra dal cie- * * lo,|Sce- se in ter-|ra dal cie- lo,|Scorg' in voi so-|la, Scorg' in|
 B2 d4 c4 d2 e4 | f4 z4 z4 z2 c2 | e4 e2 e2 a6 g2 | f4 e2 e4 ^d2 e4 | c16 | B4 B4 c8 | c4 d8 c4 | %19
w: voi, Scorg' in voi so-|la, e o-|gni su- pre- mo _|_ ho- no- * re,|Et|quan- to bel-|lo A- mo- re,|
 z8 z4 z2 e2- | e2 c4 d2 e2 e2 f4 | e2 c4 B4 A2 G4 | F4 z4 z2 B3 B A2 | A2 G2 F4 E4 z2 A2 | %24
w: Mo-|* stro del re- gno su-|o, nei va- ghi ra-|i, Scor- go de|glioc- chi vo- stri, Ov-|
 B4 A4 d4 c2 c2 | B2 c3 c d2 e4 d2 f2- | f2 e4 ^d2 e2 e2 e4 | a4 g2 a2 g4 f4 | z4 e6 e2 e4 | %29
w: un- qu'io mi- ri il|lor vi- vo splen- do- re, splen-|* do- * re, il lor|vi- vo splen- do- re,|Quel- la s'op-|
 f4 d4 c2 B2 A2 c2 | B4 B2 B2 c2 c2 e4 | c2 d4 c2 d3 e f4 | f4 e4 e2 e2 e4 | f2 c2 ^d2 e4 a2 g4 | %34
w: po- ne a tut- ti i van de-|si- ri, Que- sto m'in- fiam-|ma d'a- mo- ro- so ar- do-|re, Que- sto m'in- fiam-|ma d'a- mo- ro- so ar- do-|
 f4 z2 c4 d4 A2- | A2 B4 c2 d4 c4 | z4 A4 B4 z2 B2 | e3 e c2 c2 d4 c4 | z2 f2 e2 c2 d4 e2 f2- | %39
w: re, Al fin vin-|* ce il mi- glio- re,|Et vuol che|si vi ri ve- ri- sca,|che si vi ri ve- ri-|
 f2 d2 c2 BA B8 |[M:4/4] c8 | z4 A4 | A4 G4 | A8 | z4 c4 | A4 B4 | E8- | E4 z4 | z4 A4 | F4 B4 | %50
w: * sca e ho- no _ _ _|ri,|Che'n|du- bio|son,|Che'n|du- bio|son,|_|Che'n|du- bio|
 A8 | E4 F4- | F4 G4 | A8 | G4 F4- | F4 E4 | z4 B4 | c8 | B4 c4 | d4 e4 | d4 c4- | c2 B2 B4 | %62
w: son,|s'io v'a-|* mo o|s'io|v'a- do-|* ri,|Che'n|du-|bio son,|s'io v'a-|mo o s'io|_ v'a- do-|
[M:4/2] c4 A4 A4 G4 | A4 c4 A4 B4 | E8 z8 | z8 A4 F4 | B4 A8 E4 | F8 G4 A4- | A4 G4 F8 | E8 z4 B4 | %70
w: ri, Che'n du- bio|son, Che'n du- bio|son,|Che'n du-|bio son, s'io|v'a- mo o s'io|_ v'a- do-|ri, Che'n|
 c8 B4 c4- | c2 d2 e4 d4 c4- | c4 B4 B8 | c16 |] %74
w: du- bio son,|_ s'io v'a- mo o s'io|_ v'a- do-|ri.|
V:4
 z16 |[K:A] A,16 | E,12 C,4 | F,8 G,4 A,4- | A,4 E,4 z2 E,2 A,4 | G,2 A,4 B,2 C4 B,4 | %6
w: |Quant'|ho- ne-|sta- te ma-|* i In- vol-|ta in mor- tal ve- lo,|
 z2 A,2 A,2 G,2 A,4 E,4 | D,6 C,2 B,,4 A,,2 A,2 | D4 C4 z8 | z2 A,4 B,2 C4 B,4 | C4 z4 A,6 G,2 | %11
w: in mor- tal ve- lo,|Sce- se in ter- ra dal|cie- lo,|Scorg' in voi so-|la, Scorg' in|
 F,4 E,4 F,4 z4 | z4 A,,6 B,,2 C,2 C2 | B,4 C4 z2 E,2 A,4 | E,4 A,,8 D,4- | D,4 E,4 B,,4 E,4 | %16
w: voi so- la,|Scorg' in voi, voi|so- la, e o- gni|su- pre- mo|_ ho- no- re,|
 A,16 | E,12 C,4 | F,8 G,4 A,4- | A,4 E,4 z2 E,2 A,4 | G,2 A,4 B,2 C4 B,4 | %21
w: Et|quan- to|bel- lo A- mo-|* re, Mo- stro|del re- gno su- o,|
 z2 A,2 A,2 G,2 A,4 E,4 | z2 F,3 F, E,2 F,2 B,,2 D,4 | C,4 z2 A,3 A, G,2 A,2 F,2 | %24
w: nei va- ghi ra- i,|Scor- go de glioc- chi vo-|stri, Scor- go de glioc- chi|
 =G,4 F,4 z4 A,4 | E,2 E,2 F,4 C,2 C,2 D,4 | C,4 F,4 E,4 A,4- | A,2 B,2 C2 A,2 B,8 | E,16 | z16 | %30
w: vo- stri, Ov-|un- qu'io mi- ri il lor|vi- vo splen- do-||re,||
 z8 z4 E,4 | F,2 F,2 A,4 D,4 z4 | z4 A,,4 C,2 C,2 E,4 | B,,2 F,4 G,2 A,2 F,2 C4 | F,8 z4 F,4 | %35
w: Que-|sto m'in- fiam- ma,|Que- sto m'in- fiam-|ma d'a- mo- ro- so ar- do-|re, Al|
 D,4 E,4 F,2 G,2 A,4 | E,4 z2 A,,2 E,8 | z2 E,2 A,4 z4 A,4 | D3 D C2 A,2 B,4 A,4 | z4 A,4 E,8 | %40
w: fin vin- ce il mi- glio-|re, Et vuol,|Et vuol che|si vi ri ve- ri- sca,|e ho no|
[M:4/4] A,,8- | A,,4 A,,4 | D,4 B,,4 | A,,8- | A,,8 | z8 | z8 | A,4 F,4 | B,4 A,4- | A,4 E,4 | %50
w: ri,|_ Che'n|du- bio|son,|_|||Che'n du-|bio son,|_ s'io|
 F,8 | G,4 A,4- | A,4 G,4 | F,8 | E,4 z4 | z4 E,4 | F,4 G,4 | A,8 | G,4 F,4- | F,4 E,4 | F,4 A,4 | %61
w: v'a-|mo o s'io|_ v'a-|do-|ri,|Che'n|du- bio|son,|s'io v'a-|* mo o|s'io v'a-|
 E,8 |[M:4/2] A,,4 A,,4 D,4 B,,4 | A,,8 z8 | z8 z4 A,4 | F,4 B,4 A,8 | E,4 F,8 G,4 | A,8 G,4 F,4- | %68
w: do-|ri, Che'n du- bio|son,|Che'n|du- bio son,|s'io v'a- mo o|s'io v'a- do-|
 F,4 E,4 z8 | z4 E,4 F,4 G,4 | A,8 G,4 F,4- | F,4 E,4 F,4 A,4 | E,16 | A,,16 |] %74
w: * ri,|Che'n du- bio|son, s'io v'a-|* mo o s'io v'a-|do-|ri.|

